src/logos/digitalocean.svg

<svg viewBox="0 0 48 48" xmlns="http://www.w3.org/2000/svg"><g fill="#0080ff" fill-rule="evenodd" transform="translate(4 4)"><path d="m19.93224 40v-7.7288c8.1808 0 14.53104-8.11304 11.38976-16.7232-1.15248-3.1864-3.70616-5.74008-6.89264-6.89264-8.61016-3.11856-16.7232 3.20904-16.7232 11.38984h-7.70616c0-13.03952 12.61016-23.20904 26.28248-18.93784 5.96608 1.87568 10.7344 6.62144 12.5876 12.58752 4.2712 13.69496-5.87576 26.30512-18.93784 26.30512"/><path d="m12.2712 32.29376h7.6836v-7.6836h-7.6836zm-5.92088 5.92096h5.9208v-5.92096h-5.92072zm-4.9492-5.92096h4.94928v-4.94912h-4.94928z"/></g></svg>

<svg xmlns="http://www.w3.org/2000/svg" viewBox="0 0 48 48">
  <g fill="#0080FF" fill-rule="evenodd" transform="translate(4 4)">
    <path d="M19.93224,40 L19.93224,32.2712 C28.11304,32.2712 34.46328,24.15816 31.322,15.548 C30.16952,12.3616 27.61584,9.80792 24.42936,8.65536 C15.8192,5.5368 7.70616,11.8644 7.70616,20.0452 L0,20.0452 C0,7.00568 12.61016,-3.16384 26.28248,1.10736 C32.24856,2.98304 37.01688,7.7288 38.87008,13.69488 C43.14128,27.38984 32.99432,40 19.93224,40"/>
    <path d="M12.2712,32.29376 L19.9548,32.29376 L19.9548,24.61016 L12.2712,24.61016 L12.2712,32.29376 Z M6.35032,38.21472 L12.27112,38.21472 L12.27112,32.29376 L6.3504,32.29376 L6.35032,38.21472 Z M1.40112,32.29376 L6.3504,32.29376 L6.3504,27.34464 L1.40112,27.34464 L1.40112,32.29376 Z"/>
  </g>
</svg>
